X: 1721
T: Money in Both Pockets
B: australian traditional tunes wiki
M:6/8
L:1/8
R: Jig
Q: 3/8=100
K:D
V:1 
A|"D"d2A FDF|"A"ABA AGF|"D"d2A FDF|"Em"e2f gfe|
"D"d2A FDF|"A"ABA AGF|"Em"EFE EFA|"Bm"B3"A"A2:|
|:A|"D"dfa afe|"A"cde ecA|"D"dfa afd|f3a2a|
"D"afa "A7"geg|"D"fed "A7"cBA|"Bm"dcB "D"AFA|"Bm"B3"A"A2:|
% abcbook-tune_id 6342d53abd313c39b354b033


% abcbook-boost 0
% abcbook-tablature 
% abcbook-transpose 
% abcbook-lastupdated 1665324380017
% abcbook-soundfonts 
% abcbook-repeats 1
% NFF Book 2022
% Bush Traditions recording played by Ray Mulligan

